src/assets/img/icon/gift.svg

<svg clip-rule="evenodd" fill-rule="evenodd" stroke-linecap="round" stroke-linejoin="round" viewBox="0 0 22 22" xmlns="http://www.w3.org/2000/svg"><g fill="none" stroke="#7a8294" stroke-width="2" transform="translate(-1 -1)"><path d="m20 12v10h-16v-10"/><path d="m2 7h20v5h-20z"/><path d="m12 22v-15"/><path d="m12 7h-4.5c-1.371 0-2.5-1.129-2.5-2.5s1.129-2.5 2.5-2.5c3.5 0 4.5 5 4.5 5z"/><path d="m12 7h4.5c1.371 0 2.5-1.129 2.5-2.5s-1.129-2.5-2.5-2.5c-3.5 0-4.5 5-4.5 5z"/></g></svg>

<?xml version="1.0" encoding="UTF-8" standalone="no"?>
<!DOCTYPE svg PUBLIC "-//W3C//DTD SVG 1.1//EN" "http://www.w3.org/Graphics/SVG/1.1/DTD/svg11.dtd">
<svg width="100%" height="100%" viewBox="0 0 22 22" version="1.1" xmlns="http://www.w3.org/2000/svg" xmlns:xlink="http://www.w3.org/1999/xlink" xml:space="preserve" xmlns:serif="http://www.serif.com/" style="fill-rule:evenodd;clip-rule:evenodd;stroke-linecap:round;stroke-linejoin:round;">
    <g transform="matrix(1,0,0,1,-1,-1)">
        <path d="M20,12L20,22L4,22L4,12" style="fill:none;fill-rule:nonzero;stroke:rgb(122,130,148);stroke-width:2px;"/>
        <rect x="2" y="7" width="20" height="5" style="fill:none;stroke:rgb(122,130,148);stroke-width:2px;"/>
        <path d="M12,22L12,7" style="fill:none;fill-rule:nonzero;stroke:rgb(122,130,148);stroke-width:2px;"/>
        <path d="M12,7L7.5,7C6.129,7 5,5.871 5,4.5C5,3.129 6.129,2 7.5,2C11,2 12,7 12,7Z" style="fill:none;fill-rule:nonzero;stroke:rgb(122,130,148);stroke-width:2px;"/>
        <path d="M12,7L16.5,7C17.871,7 19,5.871 19,4.5C19,3.129 17.871,2 16.5,2C13,2 12,7 12,7Z" style="fill:none;fill-rule:nonzero;stroke:rgb(122,130,148);stroke-width:2px;"/>
    </g>
</svg>
